image/icon/Dock.svg

<!--version="1.0" encoding="UTF-8" standalone="no"--><!-- Created with Inkscape (http://www.inkscape.org/) --><svg xmlns="http://www.w3.org/2000/svg" version="1.1" width="29.2" height="42" viewBox="0 0 29.2 42" id="svg3252" style="overflow-x: visible; overflow-y: visible;"><g transform="translate(14.6,21)" id="g3258"><g id="g3260"><g id="g3262"><path d="M-9.6-11.4 0-21l9.65 9.6-5.5 5.5.25 7.2L8.35.65 14.6 13.4 0 21l-14.6-7.6L-8.25.75l3.95.6.2-7.25-5.5-5.5zm16.25 0L0-18.05l-6.65 6.65L-2-6.75V13l-3-1.55-1.4-9.8-5.4 10.85L0 18.65l11.85-6.15L6.5 1.6l-1.4 9.8L2.05 13V-6.75l4.6-4.65zm-4.3 0L0-9.05l-2.35-2.35L0-13.75l2.35 2.35z" id="path3264" style="fill: rgb(0, 0, 0); stroke-linecap: round; stroke-linejoin: round;"/><path d="m0-18.05 6.65 6.65-4.6 4.65V13l3.05-1.6 1.4-9.8 5.35 10.9L0 18.65l-11.8-6.15 5.4-10.85 1.4 9.8L-2 13V-6.75l-4.65-4.65L0-18.05zm0 9 2.35-2.35L0-13.75l-2.35 2.35L0-9.05z" id="path3266" style="fill: rgb(255, 255, 255); stroke-linecap: round; stroke-linejoin: round;"/></g></g></g></svg>

<?xml version="1.0" encoding="UTF-8" standalone="no"?>
<!-- Created with Inkscape (http://www.inkscape.org/) -->

<svg
   xmlns:dc="http://purl.org/dc/elements/1.1/"
   xmlns:cc="http://creativecommons.org/ns#"
   xmlns:rdf="http://www.w3.org/1999/02/22-rdf-syntax-ns#"
   xmlns:svg="http://www.w3.org/2000/svg"
   xmlns="http://www.w3.org/2000/svg"
   version="1.1"
   width="29.200001"
   height="42"
   viewBox="0 0 29.200001 42"
   id="svg3252"
   style="overflow:visible">
  <metadata
     id="metadata3270">
    <rdf:RDF>
      <cc:Work
         rdf:about="">
        <dc:format>image/svg+xml</dc:format>
        <dc:type
           rdf:resource="http://purl.org/dc/dcmitype/StillImage" />
        <dc:title></dc:title>
      </cc:Work>
    </rdf:RDF>
  </metadata>
  <defs
     id="defs3254" />
  <g
     transform="translate(14.6,21)"
     id="g3258">
    <g
       id="g3260">
      <g
         id="g3262">
        <path
           d="M -9.6,-11.4 0,-21 9.65,-11.4 4.15,-5.9 4.4,1.3 8.35,0.65 14.6,13.4 0,21 -14.6,13.4 -8.25,0.75 l 3.95,0.6 0.2,-7.25 -5.5,-5.5 z m 16.25,0 L 0,-18.05 -6.65,-11.4 -2,-6.75 -2,13 -5,11.45 -6.4,1.65 -11.8,12.5 0,18.65 11.85,12.5 6.5,1.6 5.1,11.4 2.05,13 l 0,-19.75 4.6,-4.65 z m -4.3,0 L 0,-9.05 -2.35,-11.4 0,-13.75 2.35,-11.4 z"
           id="path3264"
           style="fill:#000000;stroke-linecap:round;stroke-linejoin:round" />
        <path
           d="M 0,-18.05 6.65,-11.4 2.05,-6.75 2.05,13 5.1,11.4 6.5,1.6 11.85,12.5 0,18.65 -11.8,12.5 -6.4,1.65 -5,11.45 -2,13 -2,-6.75 -6.65,-11.4 0,-18.05 z m 0,9 L 2.35,-11.4 0,-13.75 -2.35,-11.4 0,-9.05 z"
           id="path3266"
           style="fill:#ffffff;stroke-linecap:round;stroke-linejoin:round" />
      </g>
    </g>
  </g>
</svg>
